X:1
T:Cripple Creek
S:John Morgan Salyer (1882-1952, Salyersville, Magoffin County, KY)
M:C|
L:1/8
R:Reel
K:A
(3efg|a2a2 edcA|defd e2fg|agaf edcA|BcBG A2fg|
a2a2 edcA|defd e2ed|c2Ac BAFF|EFEF A2:|
|:AB|c2Ac BAFA|ABcA E2AB|c2Ac BAFA|E2FE A2AB|
c2Ac BAFA|ABcA E2AB|c2Ac BAFA|E2FE A2:|
